X:738
T:Reel 738
M:4/4
K:Gmaj
L:1/8
dc|BGAF DGG2|BGBd gedc|BGAG EGDG|FDEF G2dc|BGAG DGG2|BGBd gedc|BGAG EGDc|BGAF G2|Bd|efef edBd|gfge d2BG|cBAB G2AB|cBAG E2Ac|Bcef gdBd|gfge d2Bd|egfd edBG|AGEF G2|
